svg/transport/car_2_fill.svg

<?xml version="1.0" encoding="UTF-8"?>
<svg width="24px" height="24px" viewBox="0 0 24 24" version="1.1" xmlns="http://www.w3.org/2000/svg" xmlns:xlink="http://www.w3.org/1999/xlink">
    <title>car_2_fill</title>
    <g id="页面-1" stroke="none" stroke-width="1" fill="none" fill-rule="evenodd">
        <g id="Transport" transform="translate(-240.000000, -48.000000)">
            <g id="car_2_fill" transform="translate(240.000000, 48.000000)">
                 <path d="M24,0 L24,24 L0,24 L0,0 L24,0 Z M12.5934901,23.257841 L12.5819402,23.2595131 L12.5108777,23.2950439 L12.4918791,23.2987469 L12.4918791,23.2987469 L12.4767152,23.2950439 L12.4056548,23.2595131 C12.3958229,23.2563662 12.3870493,23.2590235 12.3821421,23.2649074 L12.3780323,23.275831 L12.360941,23.7031097 L12.3658947,23.7234994 L12.3769048,23.7357139 L12.4804777,23.8096931 L12.4953491,23.8136134 L12.4953491,23.8136134 L12.5071152,23.8096931 L12.6106902,23.7357139 L12.6232938,23.7196733 L12.6232938,23.7196733 L12.6266527,23.7031097 L12.609561,23.275831 C12.6075724,23.2657013 12.6010112,23.2592993 12.5934901,23.257841 L12.5934901,23.257841 Z M12.8583906,23.1452862 L12.8445485,23.1473072 L12.6598443,23.2396597 L12.6498822,23.2499052 L12.6498822,23.2499052 L12.6471943,23.2611114 L12.6650943,23.6906389 L12.6699349,23.7034178 L12.6699349,23.7034178 L12.678386,23.7104931 L12.8793402,23.8032389 C12.8914285,23.8068999 12.9022333,23.8029875 12.9078286,23.7952264 L12.9118235,23.7811639 L12.8776777,23.1665331 C12.8752882,23.1545897 12.8674102,23.1470016 12.8583906,23.1452862 L12.8583906,23.1452862 Z M12.1430473,23.1473072 C12.1332178,23.1423925 12.1221763,23.1452606 12.1156365,23.1525954 L12.1099173,23.1665331 L12.0757714,23.7811639 C12.0751323,23.7926639 12.0828099,23.8018602 12.0926481,23.8045676 L12.108256,23.8032389 L12.3092106,23.7104931 L12.3186497,23.7024347 L12.3186497,23.7024347 L12.3225043,23.6906389 L12.340401,23.2611114 L12.337245,23.2485176 L12.337245,23.2485176 L12.3277531,23.2396597 L12.1430473,23.1473072 Z" id="MingCute" fill-rule="nonzero"></path>
                <path d="M7.58032,4 C6.86261,4 6.19992,4.38457 5.84384,5.00772 L2.26351,11.2733 C2.09083,11.5755 2,11.9175 2,12.2656 L2,16.7639 C2,17.0744 2.07229,17.3806 2.21115,17.6584 L3.32918,19.8944 C3.66796,20.572 4.36049,21 5.11803,21 L6,21 C7.10457,21 8,20.1046 8,19 L16,19 C16,20.1046 16.8954,21 18,21 L18.882,21 C19.6395,21 20.332,20.572 20.6708,19.8944 L21.7889,17.6584 C21.9277,17.3806 22,17.0744 22,16.7639 L22,12.2656 C22,11.9175 21.9092,11.5755 21.7365,11.2733 L18.1562,5.00772 C17.8001,4.38457 17.1374,4 16.4197,4 L7.58032,4 Z M12,12 C10.4027,12 8.9281,11.6573 7.44669,11.1053 C6.95281,10.8587 6.35244,11.059 6.10555,11.5528 C5.85856,12.0467 6.05878,12.6474 6.55276,12.8944 C7.04674,13.1414 9.55958,14 12,14 C13.8542,14 15.7681,13.7263 17.4447,12.8956 C17.9334,12.652 18.1389,12.0418 17.8944,11.5528 C17.6475,11.0589 17.0471,10.8587 16.5533,11.1053 C15.1885,11.7868 13.496,12 12,12 Z" id="形状" fill="#09244B"></path>
            </g>
        </g>
    </g>
</svg>

<svg xmlns="http://www.w3.org/2000/svg" width="24" height="24"><g fill="none" fill-rule="evenodd"><path d="M24 0v24H0V0h24ZM12.593 23.258l-.011.002-.071.035-.02.004-.014-.004-.071-.035c-.01-.004-.019-.001-.024.005l-.004.01-.017.428.005.02.01.013.104.074.015.004.012-.004.104-.074.012-.016.004-.017-.017-.427c-.002-.01-.009-.017-.017-.018Zm.265-.113-.013.002-.185.093-.01.01-.003.011.018.43.005.012.008.007.201.093c.012.004.023 0 .029-.008l.004-.014-.034-.614c-.003-.012-.01-.02-.02-.022Zm-.715.002a.023.023 0 0 0-.027.006l-.006.014-.034.614c0 .012.007.02.017.024l.015-.002.201-.093.01-.008.004-.011.017-.43-.003-.012-.01-.01-.184-.092Z"/><path fill="#09244B" d="M7.58 4a2 2 0 0 0-1.736 1.008l-3.58 6.265a2 2 0 0 0-.264.993v4.498a2 2 0 0 0 .211.894l1.118 2.236A2 2 0 0 0 5.118 21H6a2 2 0 0 0 2-2h8a2 2 0 0 0 2 2h.882a2 2 0 0 0 1.789-1.106l1.118-2.236c.139-.277.211-.584.211-.894v-4.498a2 2 0 0 0-.264-.993l-3.58-6.265A2 2 0 0 0 16.42 4H7.58ZM12 12c-1.597 0-3.072-.343-4.553-.895a1 1 0 0 0-.894 1.79C7.047 13.14 9.56 14 12 14c1.854 0 3.768-.274 5.445-1.104a1.01 1.01 0 0 0 .45-1.343 1 1 0 0 0-1.342-.448C15.188 11.787 13.496 12 12 12Z"/></g></svg>
